X:60
T:The London Gentlewoman
T:The Hemp-Dresser
R:Jig
M:6/8
L:1/8
Z:1998 by Norman Bradley <normanb@ix.netcom.com>
K:G
B>cd d2c|B>cd D>EF|G2GG2A|B3c3||
B>AB A>GA D>EF|G2GG2A|B3c3||

